dist/svg/spam-o.svg

<!-- Generated by Trend Micro Style Portal -->
<svg version="1.1" xmlns="http://www.w3.org/2000/svg" width="16" height="16" viewBox="0 0 16 16">
  <title>spam-o</title>
  <path fill="rgb(34,34,34)" d="M15 2h-14c-0.552 0.002-0.998 0.448-1 1v10c0.002 0.552 0.448 0.998 1 1h14c0.552-0.002 0.998-0.448 1-1v-10c-0.002-0.552-0.448-0.998-1-1h-0zM4.796 7.957l3.204 1.602 3.204-1.602 3.362 5.043h-13.131zM1 11.849v-5.79l2.895 1.447zM12.105 7.506l2.895-1.447v5.79zM4 3h11v1.941l-7 3.5-7-3.5v-1.941z"></path>
</svg>

<svg width="16" height="16" viewBox="0 0 16 16" fill="rgb(34, 34, 34)" xmlns="http://www.w3.org/2000/svg"><title>spam-o</title><path d="M15 2H1C0.448 2.002 0.002 2.448 0 3V13C0.002 13.552 0.448 13.998 1 14H15C15.552 13.998 15.998 13.552 16 13V3C15.998 2.448 15.552 2.002 15 2ZM4.796 7.957L8 9.559L11.204 7.957L14.566 13H1.435L4.796 7.957ZM1 11.849V6.059L3.895 7.506L1 11.849ZM12.105 7.506L15 6.059V11.849L12.105 7.506ZM4 3H15V4.941L8 8.441L1 4.941V3H4Z" fill="rgb(34, 34, 34)" fill-opacity="1.00"/></svg>
